symbols/web/timer_3/materialsymbolsoutlined/timer_3_wght200_40px.svg

<svg xmlns="http://www.w3.org/2000/svg" height="40" width="40"><path d="M14.042 27.833q-1.625 0-2.813-.812-1.187-.813-1.854-2.396l1.25-.542q.458 1.209 1.333 1.813.875.604 2.084.604 1.416 0 2.52-.729 1.105-.729 1.105-2.271 0-1.542-1.105-2.375-1.104-.833-2.562-.833h-1V19h1q1.208 0 2.146-.708.937-.709.937-2.167 0-1.333-.854-2t-2.104-.667q-1 0-1.813.459-.812.458-1.27 1.291l-1.209-.541q.709-1.292 1.813-1.896 1.104-.604 2.396-.604 1.875 0 3.166 1.062 1.292 1.063 1.292 2.854 0 1.292-.604 2.125-.604.834-1.979 1.417v.042q1.5.416 2.333 1.458.833 1.042.833 2.375 0 2.042-1.5 3.188-1.5 1.145-3.541 1.145Zm12.458 0q-1.333 0-2.438-.583-1.104-.583-1.854-1.875l1.084-.625q.541.917 1.333 1.396.792.479 1.875.479 1.042 0 1.896-.479.854-.479.854-1.521 0-1.042-.688-1.458-.687-.417-2.104-.709-1.875-.375-2.833-1.083-.958-.708-.958-2.208 0-1.459 1.083-2.271 1.083-.813 2.708-.813 1.292 0 2.271.459.979.458 1.563 1.5l-1.125.625q-.459-.709-1.146-1.063-.688-.354-1.604-.354-1.042 0-1.729.479-.688.479-.688 1.354 0 .959.688 1.375.687.417 2.395.75 1.584.25 2.542 1.063.958.812.958 2.312 0 1.667-1.291 2.459-1.292.791-2.792.791Z"/></svg>

<svg xmlns="http://www.w3.org/2000/svg" height="40" width="40"><path d="M14.042 27.833Q12.417 27.833 11.229 27.021Q10.042 26.208 9.375 24.625L10.625 24.083Q11.083 25.292 11.958 25.896Q12.833 26.5 14.042 26.5Q15.458 26.5 16.562 25.771Q17.667 25.042 17.667 23.5Q17.667 21.958 16.562 21.125Q15.458 20.292 14 20.292H13V19H14Q15.208 19 16.146 18.292Q17.083 17.583 17.083 16.125Q17.083 14.792 16.229 14.125Q15.375 13.458 14.125 13.458Q13.125 13.458 12.312 13.917Q11.5 14.375 11.042 15.208L9.833 14.667Q10.542 13.375 11.646 12.771Q12.75 12.167 14.042 12.167Q15.917 12.167 17.208 13.229Q18.5 14.292 18.5 16.083Q18.5 17.375 17.896 18.208Q17.292 19.042 15.917 19.625V19.667Q17.417 20.083 18.25 21.125Q19.083 22.167 19.083 23.5Q19.083 25.542 17.583 26.688Q16.083 27.833 14.042 27.833ZM26.5 27.833Q25.167 27.833 24.062 27.25Q22.958 26.667 22.208 25.375L23.292 24.75Q23.833 25.667 24.625 26.146Q25.417 26.625 26.5 26.625Q27.542 26.625 28.396 26.146Q29.25 25.667 29.25 24.625Q29.25 23.583 28.562 23.167Q27.875 22.75 26.458 22.458Q24.583 22.083 23.625 21.375Q22.667 20.667 22.667 19.167Q22.667 17.708 23.75 16.896Q24.833 16.083 26.458 16.083Q27.75 16.083 28.729 16.542Q29.708 17 30.292 18.042L29.167 18.667Q28.708 17.958 28.021 17.604Q27.333 17.25 26.417 17.25Q25.375 17.25 24.688 17.729Q24 18.208 24 19.083Q24 20.042 24.688 20.458Q25.375 20.875 27.083 21.208Q28.667 21.458 29.625 22.271Q30.583 23.083 30.583 24.583Q30.583 26.25 29.292 27.042Q28 27.833 26.5 27.833Z"/></svg>
